img/licao01/p11_14.svg

<svg xmlns="http://www.w3.org/2000/svg" xmlns:xlink="http://www.w3.org/1999/xlink" preserveAspectRatio="none" width="133" height="106" viewBox="0 0 133 106"><defs><linearGradient id="a" gradientUnits="userSpaceOnUse" x1="1359.5" y1="313.875" x2="1359.5" y2="400.825"><stop offset="0%"/><stop offset="100%" stop-color="#AEA191"/><stop offset="100%" stop-color="#FFF"/></linearGradient><filter id="d" x="-20%" y="-20%" width="140%" height="140%" color-interpolation-filters="sRGB"><feFlood flood-color="#000" flood-opacity="1" result="result1"/><feComposite in2="SourceGraphic" in="result1" operator="in" result="result2"/><feGaussianBlur in="result2" stdDeviation="2.3333333333333335,2.3333333333333335" result="result3"/><feOffset in="result3" result="result4"/><feComposite in2="result4" in="SourceGraphic" result="result5"/></filter><filter id="f" x="-21.536%" y="-20%" width="143.071%" height="140%" color-interpolation-filters="sRGB"><feGaussianBlur in="SourceGraphic" stdDeviation="1.6666666666666667,1.6666666666666667" result="result1"/><feColorMatrix in="result1" values="0 0 0 0 0 0 0 0 0 0 0 0 0 0 0 0 0 0 0.55 0" result="result2"/></filter><path fill="#F00" d="M605.25 635.35H496.6q-4.1 0-7 2.95-2.9 2.9-2.9 7v81.6q.1 3.95 2.9 6.75 2.9 2.95 7 2.95h108.65q4.1 0 7-2.95 2.85-2.8 2.95-6.75v-81.6q0-4.1-2.95-7-2.9-2.95-7-2.95z" id="b"/><path fill="#FFF" d="M605.5 644q-3.7-3.15-8.9-3.15h-92.35q-5.2 0-8.85 3.15-3.7 3.1-3.7 7.55v66.7q0 4.4 3.7 7.55 3.65 3.15 8.85 3.15h92.35q5.2 0 8.9-3.15 3.65-3.15 3.65-7.55v-66.7q0-4.45-3.65-7.55z" id="e"/><g id="g"><path fill="#9B907E" d="M151.95 210q.6-2.55 1.2-5.15l-26.8 64.85q6.7-9.4 10.4-16.7l.2-.4q8.9-18.2 15-42.6z"/><path fill="#DEC18A" d="M21.2 0H0q10.4 51.35 39.45 98 29.8 47.95 79.3 91 5.3 4.6 10.85 9.2l16.25-15.5q-1.1-.9-2.15-1.8Q96.8 141.55 66.65 98 34.35 51.4 21.2 0m529.6 0q-14.45 49-49.05 98-29.25 41.45-73 82.9-.85.8-1.7 1.65l9.15 18.35h2.15q6.45-5.95 12.55-11.9 46.9-45.5 76.35-91 31.7-49 43.25-98h-19.7z"/><path fill="#524733" d="M389.45 199.95q2.4 5.05 3.15 10.05 1.4 9.5-3.2 18.95H179.9q-4.6-9.45-3.2-18.95.75-5 3.2-10.05h-2.5q-2.45 5.05-3.2 10.05-1.55 9.75 3.2 19.5h214.55q4.75-9.75 3.25-19.5-.8-5-3.25-10.05h-2.5z"/><path fill="#E5D8C3" d="M392.6 210q-.75-5-3.15-10.05H179.9q-2.45 5.05-3.2 10.05-1.4 9.5 3.2 18.95h209.5q4.6-9.45 3.2-18.95z"/><path fill="#8E7E6E" d="M429.85 229.85l-3.15 12.95q2.2 5.35 4.75 10.2 1.75 3.4 3.65 6.55 3.25 5.35 11.3 14.75l-16.55-44.45z"/><path fill="#F3E5CF" d="M412.2 200.9q-.1-.45-.15-.95h-20.1Q394.4 205 395.2 210q1.5 9.75-3.25 19.5H177.4q-4.75-9.75-3.2-19.5.75-5 3.2-10.05h-20.1q-1.1 5.15-2.3 10.05-5.95 23.85-14.6 41.65-.35.65-.7 1.35-5.25 10.2-16.35 24.45-46.4 77.8-45.45 169.25.05 8.65.6 17.1 5.65 90.1 61.65 153.8 61.25 69.55 147.05 68.3 85.85-1.35 146.1-72.9 52.4-62.25 59.3-149.2 1.05-13.05 1.05-26.65.1-91.85-46.95-159.05-.55-.8-1.1-1.55-10.3-11.8-14.05-18.05-1.6-2.65-3.1-5.5-1.45-2.8-2.85-5.75Q418.1 231 413.85 210q-.9-4.45-1.65-9.1m2.5 168.15q.4 1.75.75 3.55.8 3.95 1.55 7.95 5.4 29.95 5.25 61.8-3.25 13.2-2.35 17.85.9 4.65.9 5.8-4.4 30.15-18.5 55.85-8.05 14.3-19.1 27.25-39.2 45.6-95.75 46.7-23.8.25-44.65-7.4-17.9-6.65-33.5-19.1-9.55-7.6-18.25-17.35-12.7-14.2-21.4-30.2-14.05-25.5-17.85-55.85-1.5-10.7-1.5-22.05-.1-8.1.85-15.85 1.85-29 6.65-57.2 5.7-32.35 25.7-55.9 18.8-23.8 40.9-24.85 23.35-1.15 50.05-1.5 12.85-.15 25.65.1 25.95 1.05 48.45 3.55 21.4 2.2 40.25 26.05 19.15 22.15 25.9 50.8z"/><path fill="#BFA677" d="M415.45 372.6q-.35-1.8-.75-3.55-6.75-28.65-25.9-50.8-18.85-23.85-40.25-26.05-22.5-2.5-48.45-3.55-12.8-.25-25.65-.1-26.7.35-50.05 1.5-22.1 1.05-40.9 24.85-20 23.55-25.7 55.9-4.8 28.2-6.65 57.2-.95 7.75-.85 15.85 0 11.35 1.5 22.05 3.8 30.35 17.85 55.85 8.7 16 21.4 30.2 8.7 9.75 18.25 17.35 15.6 12.45 33.5 19.1 20.85 7.65 44.65 7.4 56.55-1.1 95.75-46.7 11.05-12.95 19.1-27.25 14.1-25.7 18.5-55.85 0-1.15-.9-5.8t2.35-17.85q.15-31.85-5.25-61.8-.75-4-1.55-7.95m-70.2-73.75q20.3 2.1 38.2 24.75 18.15 21 24.55 48.2.4 1.65.75 3.35.75 3.75 1.45 7.55 5.1 28.4 5 58.6-3.1 12.55-2.25 16.95.85 4.4.85 5.5-4.15 28.6-17.55 53-7.65 13.55-18.1 25.85-37.2 43.25-90.85 44.3-22.6.25-42.35-7.05-17-6.3-31.8-18.1-9.05-7.2-17.3-16.45-12.05-13.5-20.3-28.65-13.35-24.2-16.95-53-1.4-10.15-1.4-20.9-.1-7.7.8-15.05 1.75-27.5 6.3-54.25 5.4-30.7 24.4-53.05 17.8-22.55 38.8-23.55 22.15-1.1 47.45-1.45 12.2-.15 24.35.1 24.6 1 45.95 3.35z"/><path fill="#AEA191" d="M410.2 382.7q-30.2-26.55-69.8-26.55-49.2 0-84 41.05-34.75 41.05-34.75 99.05 0 47.5 23.3 83.6 19.75 7.3 42.35 7.05 53.65-1.05 90.85-44.3 10.45-12.3 18.1-25.85 13.4-24.4 17.55-53 0-1.1-.85-5.5t2.25-16.95q.1-30.2-5-58.6m6.75-172.7q-.9-4.45-1.65-9.1-.1-.45-.15-.95h-3.1q.05.5.15.95.75 4.65 1.65 9.1 4.25 21 11.75 37.25 1.4 2.95 2.85 5.75 1.5 2.85 3.1 5.5 3.75 6.25 14.05 18.05.55.75 1.1 1.55 47.05 67.2 46.95 159.05 0 13.6-1.05 26.65-6.9 86.95-59.3 149.2-60.25 71.55-146.1 72.9-85.8 1.25-147.05-68.3-56-63.7-61.65-153.8-.55-8.45-.6-17.1-.95-91.45 45.45-169.25 11.1-14.25 16.35-24.45.35-.7.7-1.35 8.65-17.8 14.6-41.65 1.2-4.9 2.3-10.05h-3.05q-.55 2.5-1.1 4.9-.6 2.6-1.2 5.15-6.1 24.4-15 42.6l-.2.4q-3.7 7.3-10.4 16.7-3.1 4.35-6.85 9.15Q71.95 358 72.95 451.05q.05 8.8.6 17.4 5.8 91.65 63.15 156.45 62.7 70.75 150.6 69.5 87.9-1.35 149.6-74.15 53.65-63.35 60.7-151.8 1.1-13.3 1.1-27.15.1-93.45-48.1-161.8l-1.1-1.6q-1.65-1.85-3.1-3.6-8.05-9.4-11.3-14.75-1.9-3.15-3.65-6.55-2.55-4.85-4.75-10.2-6.1-14.65-9.75-32.8z"/><path fill="#857856" d="M408.75 375.15q-.35-1.7-.75-3.35-36.7-41.95-88.15-41.95-52.65 0-89.9 43.9-37.2 43.95-37.2 106.05 0 45.95 20.4 81.95 14.8 11.8 31.8 18.1-23.3-36.1-23.3-83.6 0-58 34.75-99.05 34.8-41.05 84-41.05 39.6 0 69.8 26.55-.7-3.8-1.45-7.55z"/><path fill="#776540" d="M383.45 323.6q-17.9-22.65-38.2-24.75-21.35-2.35-45.95-3.35-12.15-.25-24.35-.1-25.3.35-47.45 1.45-21 1-38.8 23.55-19 22.35-24.4 53.05-4.55 26.75-6.3 54.25-.9 7.35-.8 15.05 0 10.75 1.4 20.9 3.6 28.8 16.95 53 8.25 15.15 20.3 28.65 8.25 9.25 17.3 16.45-20.4-36-20.4-81.95 0-62.1 37.2-106.05 37.25-43.9 89.9-43.9 51.45 0 88.15 41.95-6.4-27.2-24.55-48.2z"/><path fill="#685F42" d="M415.3 200.9q.75 4.65 1.65 9.1 3.65 18.15 9.75 32.8l3.15-12.95-10.75-28.95h-3.8z"/><path fill="#DBCDBE" d="M427.05 182.55l-.85-1.65H147.75l-1.9 1.8-16.25 15.5.9.7 27.65 1h253.9v.05h3.1q.05.5.15.95H436.2l-9.15-18.35z"/><path fill="#B4A472" d="M501.75 98q34.6-49 49.05-98H21.2q13.15 51.4 45.45 98 30.15 43.55 77.05 82.9h285.05q43.75-41.45 73-82.9z"/></g><path fill="url(#a)" d="M1359.5 313.9q-11.6 0-19.8 8.2-8.2 8.2-8.2 19.8v30.95q0 11.6 8.2 19.8 8.2 8.2 19.8 8.2 11.6 0 19.8-8.2 8.2-8.2 8.2-19.8V341.9q0-11.6-8.2-19.8-8.2-8.2-19.8-8.2z" id="h"/><path fill="#FFF" fill-opacity=".337" d="M1057.2 350.15q-19.9-21.8-48.05-21.8t-48.1 21.8q-19.9 21.85-19.9 52.7t19.9 52.65q19.95 21.85 48.1 21.85 28.15 0 48.05-21.85 19.95-21.8 19.95-52.65 0-30.85-19.95-52.7z" id="i"/><path id="c" stroke="#8CA8B8" stroke-linejoin="round" stroke-linecap="round" fill="none" d="M605.25 635.35q4.1 0 7 2.95 2.95 2.9 2.95 7v81.6q-.1 3.95-2.95 6.75-2.9 2.95-7 2.95H496.6q-4.1 0-7-2.95-2.8-2.8-2.9-6.75v-81.6q0-4.1 2.9-7 2.9-2.95 7-2.95h108.6"/></defs><g transform="translate(-484.45 -632.95)"><use xlink:href="#b"/><use xlink:href="#c"/></g><g filter="url(#d)"><use xlink:href="#e" transform="translate(-483.9 -631.9)"/><g filter="url(#f)"><use xlink:href="#g" transform="translate(31.75 11.6) scale(.11894)"/><use xlink:href="#h" transform="translate(-95.762 18.968) scale(.11894)"/><use xlink:href="#i" transform="translate(-54.055 14.633) scale(.11894)"/></g><use xlink:href="#g" transform="matrix(.11895 0 0 .11895 30.4 9.603)"/><use xlink:href="#h" transform="matrix(.11895 0 0 .11895 -97.12 16.972)"/><use xlink:href="#i" transform="matrix(.11895 0 0 .11895 -55.41 12.636)"/></g></svg>

<svg xmlns="http://www.w3.org/2000/svg" version="1.1" xmlns:xlink="http://www.w3.org/1999/xlink" preserveAspectRatio="none" x="0px" y="0px" width="133px" height="106px" viewBox="0 0 133 106">
<defs>
<linearGradient id="Gradient_1" gradientUnits="userSpaceOnUse" x1="1359.5" y1="313.875" x2="1359.5" y2="400.82500000000005" spreadMethod="pad">
<stop  offset="0%" stop-color="#000000"/>

<stop  offset="100%" stop-color="#AEA191"/>

<stop  offset="100%" stop-color="#FFFFFF"/>
</linearGradient>

<filter id="Filter_1" x="-20%" y="-20%" width="140%" height="140%" color-interpolation-filters="sRGB">
<feFlood flood-color="#000000" flood-opacity="1" in="SourceGraphic" result="result1"/>

<feComposite in2="SourceGraphic" in="result1" operator="in" result="result2"/>

<feGaussianBlur in="result2" stdDeviation="2.3333333333333335,2.3333333333333335" result="result3"/>

<feOffset dx="0" dy="0" in="result3" result="result4"/>

<feComposite in2="result4" in="SourceGraphic" operator="over" result="result5"/>
</filter>

<filter id="Filter_2" x="-21.535627431659297%" y="-20%" width="143.0712548633186%" height="140%" color-interpolation-filters="sRGB">
<feGaussianBlur in="SourceGraphic" stdDeviation="1.6666666666666667,1.6666666666666667" result="result1"/>

<feColorMatrix in="result1" type="matrix" values="0 0 0 0 0 0 0 0 0 0 0 0 0 0 0 0 0 0 0.55 0" result="result2"/>
</filter>

<g id="Layer0_0_MEMBER_0_FILL">
<path fill="#FF0000" stroke="none" d="
M 605.25 635.35
L 605.2 635.35 496.6 635.35
Q 492.5 635.35 489.6 638.3 486.7 641.2 486.7 645.3
L 486.7 726.9
Q 486.8 730.85 489.6 733.65 492.5 736.6 496.6 736.6
L 605.25 736.6
Q 609.35 736.6 612.25 733.65 615.1 730.85 615.2 726.9
L 615.2 645.3
Q 615.2 641.2 612.25 638.3 609.35 635.35 605.25 635.35 Z"/>
</g>

<g id="S_mbolo_7_0_Layer0_0_FILL">
<path fill="#FFFFFF" stroke="none" d="
M 605.5 644
Q 601.8 640.85 596.6 640.85
L 504.25 640.85
Q 499.05 640.85 495.4 644 491.7 647.1 491.7 651.55
L 491.7 718.25
Q 491.7 722.65 495.4 725.8 499.05 728.95 504.25 728.95
L 596.6 728.95
Q 601.8 728.95 605.5 725.8 609.15 722.65 609.15 718.25
L 609.15 651.55
Q 609.15 647.1 605.5 644 Z"/>
</g>

<g id="sanitario_0_Layer0_0_FILL">
<path fill="#9B907E" stroke="none" d="
M 151.95 210
Q 152.55 207.45 153.15 204.85
L 126.35 269.7
Q 133.05 260.3 136.75 253 136.85 252.8 136.95 252.6 145.85 234.4 151.95 210 Z"/>

<path fill="#DEC18A" stroke="none" d="
M 21.2 0
L 0 0
Q 10.4 51.35 39.45 98 69.25 145.95 118.75 189 124.05 193.6 129.6 198.2
L 145.85 182.7
Q 144.75 181.8 143.7 180.9 96.8 141.55 66.65 98 34.35 51.4 21.2 0
M 550.8 0
Q 536.35 49 501.75 98 472.5 139.45 428.75 180.9 427.9 181.7 427.05 182.55
L 436.2 200.9 438.35 200.9
Q 444.8 194.95 450.9 189 497.8 143.5 527.25 98 558.95 49 570.5 0
L 550.8 0 Z"/>

<path fill="#524733" stroke="none" d="
M 389.45 199.95
Q 391.85 205 392.6 210 394 219.5 389.4 228.95
L 179.9 228.95
Q 175.3 219.5 176.7 210 177.45 205 179.9 199.95
L 177.4 199.95
Q 174.95 205 174.2 210 172.65 219.75 177.4 229.5
L 391.95 229.5
Q 396.7 219.75 395.2 210 394.4 205 391.95 199.95
L 389.45 199.95 Z"/>

<path fill="#E5D8C3" stroke="none" d="
M 392.6 210
Q 391.85 205 389.45 199.95
L 179.9 199.95
Q 177.45 205 176.7 210 175.3 219.5 179.9 228.95
L 389.4 228.95
Q 394 219.5 392.6 210 Z"/>

<path fill="#8E7E6E" stroke="none" d="
M 429.85 229.85
L 426.7 242.8
Q 428.9 248.15 431.45 253 433.2 256.4 435.1 259.55 438.35 264.9 446.4 274.3
L 429.85 229.85 Z"/>

<path fill="#F3E5CF" stroke="none" d="
M 412.2 200.9
Q 412.1 200.45 412.05 199.95
L 391.95 199.95
Q 394.4 205 395.2 210 396.7 219.75 391.95 229.5
L 177.4 229.5
Q 172.65 219.75 174.2 210 174.95 205 177.4 199.95
L 157.3 199.95
Q 156.2 205.1 155 210 149.05 233.85 140.4 251.65 140.05 252.3 139.7 253 134.45 263.2 123.35 277.45 76.95 355.25 77.9 446.7 77.95 455.35 78.5 463.8 84.15 553.9 140.15 617.6 201.4 687.15 287.2 685.9 373.05 684.55 433.3 613 485.7 550.75 492.6 463.8 493.65 450.75 493.65 437.15 493.75 345.3 446.7 278.1 446.15 277.3 445.6 276.55 435.3 264.75 431.55 258.5 429.95 255.85 428.45 253 427 250.2 425.6 247.25 418.1 231 413.85 210 412.95 205.55 412.2 200.9
M 414.7 369.05
Q 415.1 370.8 415.45 372.6 416.25 376.55 417 380.55 422.4 410.5 422.25 442.35 419 455.55 419.9 460.2 420.8 464.85 420.8 466 416.4 496.15 402.3 521.85 394.25 536.15 383.2 549.1 344 594.7 287.45 595.8 263.65 596.05 242.8 588.4 224.9 581.75 209.3 569.3 199.75 561.7 191.05 551.95 178.35 537.75 169.65 521.75 155.6 496.25 151.8 465.9 150.3 455.2 150.3 443.85 150.2 435.75 151.15 428 153 399 157.8 370.8 163.5 338.45 183.5 314.9 202.3 291.1 224.4 290.05 247.75 288.9 274.45 288.55 287.3 288.4 300.1 288.65 326.05 289.7 348.55 292.2 369.95 294.4 388.8 318.25 407.95 340.4 414.7 369.05 Z"/>

<path fill="#BFA677" stroke="none" d="
M 415.45 372.6
Q 415.1 370.8 414.7 369.05 407.95 340.4 388.8 318.25 369.95 294.4 348.55 292.2 326.05 289.7 300.1 288.65 287.3 288.4 274.45 288.55 247.75 288.9 224.4 290.05 202.3 291.1 183.5 314.9 163.5 338.45 157.8 370.8 153 399 151.15 428 150.2 435.75 150.3 443.85 150.3 455.2 151.8 465.9 155.6 496.25 169.65 521.75 178.35 537.75 191.05 551.95 199.75 561.7 209.3 569.3 224.9 581.75 242.8 588.4 263.65 596.05 287.45 595.8 344 594.7 383.2 549.1 394.25 536.15 402.3 521.85 416.4 496.15 420.8 466 420.8 464.85 419.9 460.2 419 455.55 422.25 442.35 422.4 410.5 417 380.55 416.25 376.55 415.45 372.6
M 345.25 298.85
Q 365.55 300.95 383.45 323.6 401.6 344.6 408 371.8 408.4 373.45 408.75 375.15 409.5 378.9 410.2 382.7 415.3 411.1 415.2 441.3 412.1 453.85 412.95 458.25 413.8 462.65 413.8 463.75 409.65 492.35 396.25 516.75 388.6 530.3 378.15 542.6 340.95 585.85 287.3 586.9 264.7 587.15 244.95 579.85 227.95 573.55 213.15 561.75 204.1 554.55 195.85 545.3 183.8 531.8 175.55 516.65 162.2 492.45 158.6 463.65 157.2 453.5 157.2 442.75 157.1 435.05 158 427.7 159.75 400.2 164.3 373.45 169.7 342.75 188.7 320.4 206.5 297.85 227.5 296.85 249.65 295.75 274.95 295.4 287.15 295.25 299.3 295.5 323.9 296.5 345.25 298.85 Z"/>

<path fill="#AEA191" stroke="none" d="
M 410.2 382.7
Q 380 356.15 340.4 356.15 291.2 356.15 256.4 397.2 221.65 438.25 221.65 496.25 221.65 543.75 244.95 579.85 264.7 587.15 287.3 586.9 340.95 585.85 378.15 542.6 388.6 530.3 396.25 516.75 409.65 492.35 413.8 463.75 413.8 462.65 412.95 458.25 412.1 453.85 415.2 441.3 415.3 411.1 410.2 382.7
M 416.95 210
Q 416.05 205.55 415.3 200.9 415.2 200.45 415.15 199.95
L 412.05 199.95
Q 412.1 200.45 412.2 200.9 412.95 205.55 413.85 210 418.1 231 425.6 247.25 427 250.2 428.45 253 429.95 255.85 431.55 258.5 435.3 264.75 445.6 276.55 446.15 277.3 446.7 278.1 493.75 345.3 493.65 437.15 493.65 450.75 492.6 463.8 485.7 550.75 433.3 613 373.05 684.55 287.2 685.9 201.4 687.15 140.15 617.6 84.15 553.9 78.5 463.8 77.95 455.35 77.9 446.7 76.95 355.25 123.35 277.45 134.45 263.2 139.7 253 140.05 252.3 140.4 251.65 149.05 233.85 155 210 156.2 205.1 157.3 199.95
L 154.25 199.95
Q 153.7 202.45 153.15 204.85 152.55 207.45 151.95 210 145.85 234.4 136.95 252.6 136.85 252.8 136.75 253 133.05 260.3 126.35 269.7 123.25 274.05 119.5 278.85 71.95 358 72.95 451.05 73 459.85 73.55 468.45 79.35 560.1 136.7 624.9 199.4 695.65 287.3 694.4 375.2 693.05 436.9 620.25 490.55 556.9 497.6 468.45 498.7 455.15 498.7 441.3 498.8 347.85 450.6 279.5 450.05 278.7 449.5 277.9 447.85 276.05 446.4 274.3 438.35 264.9 435.1 259.55 433.2 256.4 431.45 253 428.9 248.15 426.7 242.8 420.6 228.15 416.95 210 Z"/>

<path fill="#857856" stroke="none" d="
M 408.75 375.15
Q 408.4 373.45 408 371.8 371.3 329.85 319.85 329.85 267.2 329.85 229.95 373.75 192.75 417.7 192.75 479.8 192.75 525.75 213.15 561.75 227.95 573.55 244.95 579.85 221.65 543.75 221.65 496.25 221.65 438.25 256.4 397.2 291.2 356.15 340.4 356.15 380 356.15 410.2 382.7 409.5 378.9 408.75 375.15 Z"/>

<path fill="#776540" stroke="none" d="
M 383.45 323.6
Q 365.55 300.95 345.25 298.85 323.9 296.5 299.3 295.5 287.15 295.25 274.95 295.4 249.65 295.75 227.5 296.85 206.5 297.85 188.7 320.4 169.7 342.75 164.3 373.45 159.75 400.2 158 427.7 157.1 435.05 157.2 442.75 157.2 453.5 158.6 463.65 162.2 492.45 175.55 516.65 183.8 531.8 195.85 545.3 204.1 554.55 213.15 561.75 192.75 525.75 192.75 479.8 192.75 417.7 229.95 373.75 267.2 329.85 319.85 329.85 371.3 329.85 408 371.8 401.6 344.6 383.45 323.6 Z"/>

<path fill="#685F42" stroke="none" d="
M 415.3 200.9
Q 416.05 205.55 416.95 210 420.6 228.15 426.7 242.8
L 429.85 229.85 419.1 200.9 415.3 200.9 Z"/>

<path fill="#DBCDBE" stroke="none" d="
M 427.05 182.55
L 426.2 180.9 147.75 180.9 145.85 182.7 129.6 198.2
Q 130.05 198.55 130.5 198.9
L 158.15 199.9 412.05 199.9 412.05 199.95 415.15 199.95
Q 415.2 200.45 415.3 200.9
L 419.1 200.9 436.2 200.9 427.05 182.55 Z"/>

<path fill="#B4A472" stroke="none" d="
M 501.75 98
Q 536.35 49 550.8 0
L 21.2 0
Q 34.35 51.4 66.65 98 96.8 141.55 143.7 180.9
L 147.75 180.9 426.2 180.9 428.75 180.9
Q 472.5 139.45 501.75 98 Z"/>
</g>

<g id="sanitario_0_Layer0_1_FILL">
<path fill="url(#Gradient_1)" stroke="none" d="
M 1359.5 313.9
Q 1347.9 313.9 1339.7 322.1 1331.5 330.3 1331.5 341.9
L 1331.5 372.85
Q 1331.5 384.45 1339.7 392.65 1347.9 400.85 1359.5 400.85 1371.1 400.85 1379.3 392.65 1387.5 384.45 1387.5 372.85
L 1387.5 341.9
Q 1387.5 330.3 1379.3 322.1 1371.1 313.9 1359.5 313.9 Z"/>
</g>

<g id="sanitario_0_Layer0_2_FILL">
<path fill="#FFFFFF" fill-opacity="0.33725490196078434" stroke="none" d="
M 1057.2 350.15
Q 1037.3 328.35 1009.15 328.35 981 328.35 961.05 350.15 941.15 372 941.15 402.85 941.15 433.7 961.05 455.5 981 477.35 1009.15 477.35 1037.3 477.35 1057.2 455.5 1077.15 433.7 1077.15 402.85 1077.15 372 1057.2 350.15 Z"/>
</g>

<path id="Layer0_0_MEMBER_0_1_STROKES" stroke="#8CA8B8" stroke-width="1" stroke-linejoin="round" stroke-linecap="round" fill="none" d="
M 605.25 635.35
Q 609.35 635.35 612.25 638.3 615.2 641.2 615.2 645.3
L 615.2 726.9
Q 615.1 730.85 612.25 733.65 609.35 736.6 605.25 736.6
L 496.6 736.6
Q 492.5 736.6 489.6 733.65 486.8 730.85 486.7 726.9
L 486.7 645.3
Q 486.7 641.2 489.6 638.3 492.5 635.35 496.6 635.35
L 605.2 635.35"/>
</defs>

<g transform="matrix( 1, 0, 0, 1, -484.45,-632.95) ">
<use xlink:href="#Layer0_0_MEMBER_0_FILL"/>

<use xlink:href="#Layer0_0_MEMBER_0_1_STROKES"/>
</g>

<g filter="url(#Filter_1)" transform="matrix( 1, 0, 0, 1, 0,0) ">
<g transform="matrix( 1, 0, 0, 1, 7.8,8.95) ">
<g transform="matrix( 1, 0, 0, 1, -491.7,-640.85) ">
<use xlink:href="#S_mbolo_7_0_Layer0_0_FILL"/>
</g>

<g transform="matrix( 0.102203369140625, 0, 0, 0.102203369140625, 57.2,42.95) ">
<g filter="url(#Filter_2)" transform="matrix( 9.784408569335938, 0, 0, 9.784408569335938, -636,-507.8) ">
<g transform="matrix( 0.1189422607421875, 0, 0, 0.1189422607421875, 31.75,11.6) ">
<g transform="matrix( 1, 0, 0, 1, 0,0) ">
<use xlink:href="#sanitario_0_Layer0_0_FILL"/>
</g>

<g transform="matrix( 1, 0, 0, 1, -1072.05,61.95) ">
<use xlink:href="#sanitario_0_Layer0_1_FILL"/>
</g>

<g transform="matrix( 1, 0, 0, 1, -721.4,25.5) ">
<use xlink:href="#sanitario_0_Layer0_2_FILL"/>
</g>
</g>
</g>

<g transform="matrix( 1.163848876953125, 0, 0, 1.163848876953125, -338.55,-413.85) ">
<g transform="matrix( 1, 0, 0, 1, 0,0) ">
<use xlink:href="#sanitario_0_Layer0_0_FILL"/>
</g>

<g transform="matrix( 1, 0, 0, 1, -1072.05,61.95) ">
<use xlink:href="#sanitario_0_Layer0_1_FILL"/>
</g>

<g transform="matrix( 1, 0, 0, 1, -721.4,25.5) ">
<use xlink:href="#sanitario_0_Layer0_2_FILL"/>
</g>
</g>
</g>
</g>
</g>
</svg>
